-- research and development residency 5/16/2018
-- track 4

d1 $ every 3 (slow 2)$ every 6 (stut 8 0.75 0.5)$ seqPLoop [
  (0,8, pop4 0.125 1.2 $ sound "[pad:1(3,8,5), <feel:1*2 feel:4? feel:5>]" # cut 2 # speed 0.5 # room 0.0),
  (8,16,pop4 0.125 1.7 $ sound "[feel:6([5 4 3]/3,8),crd:1(3,8), <feel:1*2 feel:4? feel:5>]" # cut 2 # speed 0.5 # room 0.0),
  (16, 18, sound "{glitch:2*4, bd(3,7)}" # cut 2)
  ]
