-- research and development residency 5/16/2018
-- track 8


d3 $ realAF $ stack[
every 7 (twist 0.75 1.0 16)$ seqPLoop [
(0,8, stack[
  pop4 0.125 1.7 $ sound "research:70/4",
  sound "glitch:2"]),
(8,10, sound "[feel:6, trp:3(3,8)]" # gain 0.75),
(10,16, stack[
  pop4 0.125 1.7 $ sound "research:69/4",
  sound "ul:6([7 4]/3,8)" # gain 0.75
  ])
],
sound "[hh([4 7 5]/5,8),feel:8(3,8)]"
]
